X: 0009
T: S\"arna \"Aldsta Brurmarsch. efter G\aards Jonas.
O: M.E.
%R: march
B: Paul B\"ackstr\"om's "L\aatar fr\aan Dalarna" collection" 1974
Z: 2022 John Chambers <jc:trillian.mit.edu>
M: 2/4
L: 1/8
P: (G-str\"angen uppst\"amd till a.)
%%text K.E.F.24.
K: Dm
% - - - - - - - - - -
|:\
[A2D2] (3(^cde) | Tgf Tfd | Td^c TcA | [e3c3] e ||\
Tfd (3(efg) | [a3A3] e | fa (3(Tgfe) | [d3D3] A :|
|:\
[AD] a2 =b | gg ae | (3(Tfed) (3(Td^cd) | [e3A3] f ||\
(3(Tgfe) fTf | dTd ^cTc | A^c [eA]c |[1 [d3D3] A :|[2 [d4D4] |]
% - - - - - - - - - -
